X: 2
T: Beer Barrel Polka
C: S-B
M: C|
Z: Transcribed to abc by Mary Lou Knack
R: polka
K: C
G^F| "C"G2 E4 G^F| G2 E4 G^F| G2c2 d3c| "G7"c2 B4 B^A| \
         B2c2 d2c2| c2 B4 Bc| B2 A4 AB| "C"A2 G4 G^F|
     "C"G2 E4 G^F| G2 E4 G^F| G2c2 d2c2| "G7"c2 B6| \
         d3d d3c| c2 B4 A2| G2^G2 A2B2| "C"c2^F2 G2^G2|]
|:\
"F"A4 ^G2A2| A2F2 E2D2| A8-| A2E2 F2^F2| \
"C"G4 ^F2G2-| G2E2 D2C2| G8-| G2c2 d2c2|
"G7"B6 d2| A6 G2| B8-| B2c2 d2c2| \
    B4 d4 |1 A4 _A4| "C"G8-| G2 ^F2 G2^G2 :|2 "G7"A4 B4| "C"c8-| c2c2 d2e2|] [K:F]\
\
"F"f4 d4|c4 A4| F4 D4| C4 A,4| c8| c6 =B2| c2 d6-| d8|
"F"c2 d4 c2| d2 c4 =B2| "C7"_B8-| B8| d8| d6 ^c2| d2 e6-| e8|
"C7"d2 e4 d2| e2 d4 _d2| "F"c8-| c2A2 B2=B2| c8| c6 =B2| c2 d6-| d8|
"F7"c2 d4 c2| d2 c4 F2| "Bb"d8-| d8| \
"Gm"G2A2 B2c2| "C7"e6 d2| "F"d2 c6-| "D7"c4 =B2c2|\
"G7"d8| "C7"e8| "F"f3d c2A2| F2 z4|]
